src/assets/images/icon_grid_wind_vane.svg

<?xml version="1.0" encoding="UTF-8"?>
<svg id="icons" xmlns="http://www.w3.org/2000/svg" viewBox="0 0 500 500">
  <defs>
    <style>
      .cls-1 {
        fill: none;
        stroke: #000;
        stroke-linecap: round;
        stroke-linejoin: round;
        stroke-width: .82px;
      }
    </style>
  </defs>
  <path class="cls-1" d="M258.67,265.67c4.89-2.48,9.46-5.53,14.21-8.26,17.05-9.81,33.99-19.81,50.91-29.86,9.96-5.91,20.07-11.57,29.86-17.75,2.75-1.74,5.19-3.93,8.04-5.56,6.49-3.73,12.92-7.54,19.36-11.35,3.79-2.24,7.96-4.04,10.57-7.96,1.78-2.67,2.82-5.54,2.83-8.67.04-39.97.03-79.95.02-119.92,0-4.81-4.98-7.81-9.26-5.55-5.93,3.13-11.43,6.96-17.1,10.51-8.92,5.58-17.83,11.17-26.78,16.71-2.73,1.69-5.58,3.25-8.05,5.34-4.05,3.43-6.09,8-7.68,12.96-2.09,6.49-4.33,12.94-6.52,19.39-3.54,10.43-6.94,20.9-10.57,31.3-4.05,11.59-7.85,23.25-11.83,34.86-5.3,15.47-10.44,31-15.52,46.54-.44,1.36-1.02,2.36-2.45,3.15-9.64,5.29-18.98,11.08-28.48,16.61-.41.24-.65.6-1.02.85"/>
  <path class="cls-1" d="M391.36,51.78c-11.48,6.9-22.62,14.36-34,21.43-5.92,3.68-11.73,7.54-17.72,11.13-5.2,3.12-7.84,8.08-9.69,13.6-5.79,17.26-11.69,34.48-17.53,51.71-4.21,12.42-8.25,24.91-12.55,37.3-3.88,11.16-7.45,22.43-11.33,33.59-1.21,3.49-2.18,7.06-3.53,10.5-.24.61.02.99.23,1.45"/>
  <path class="cls-1" d="M356.95,206.53c-.63-1.67.11-3.41-.55-5.18-1.7-4.51-6.43-6.75-11.19-3.88-16.22,9.79-32.6,19.3-48.87,28.99-3.55,2.12-8.22,5.67-12.21,7.06"/>
  <path class="cls-1" d="M271.44,385.59c.98,1.04.16,2.21.16,3.3.07,11.06-.12,22.12.11,33.17.12,5.88-2.32,10.09-6.87,13.39-5.11,3.7-10.97,5.38-17.1,6.42-4.33.74-8.66.75-12.98.33-3.13-.3-6.23-.87-9.29-1.76-4.29-1.24-8.29-2.97-11.72-5.83-3.56-2.98-5.81-6.67-5.79-11.52.03-11.74,0-23.49.02-35.24,0-.77-.23-1.6.4-2.27"/>
  <path class="cls-1" d="M236.83,395.27v52.75"/>
  <path class="cls-1" d="M160.17,321.09c-1.7-.18-.99-1.85-1.09-2.49-.49-3.12-2.06-5.64-3.91-7.97-.92-1.16-1.72-2.51-3.03-3.35-1.86-1.18-3.79-1.6-5.77-.4-5.13,3.13-10.32,6.16-15.46,9.26-2.4,1.45-4.74,3.06-7.25,4.25-3.38,1.61-5.49,4.46-7.75,7.12-3.05,3.61-6.07,7.26-9.12,10.87-1.03,1.22-1.63,2.57-1,4.12.65,1.59,2.21,2.26,3.68,2.22,6.13-.18,12.25-.78,18.12-2.66,3-.96,5.55-2.92,8.25-4.5,6.96-4.08,13.87-8.25,20.85-12.3,1.62-.94,2.41-2.12,2.85-3.77"/>
  <path class="cls-1" d="M277.21,352c-.37.09-.64.25-.83.61-4.01,7.63-10.94,11.32-18.75,13.8-3.55,1.13-7.16,1.99-10.92,2.07-1.18.03-2.29.62-3.5.4"/>
  <path class="cls-1" d="M242.8,368.9c-6.62.25-13.18-.32-19.57-2.09-6.59-1.82-12.87-4.38-17.47-9.7-1.75-2.03-3.79-3.99-4.2-6.96-.94-6.83,2.01-11.95,7.06-16.04,3.61-2.93,7.87-4.73,12.34-5.99.38-.11.82-.01,1.23-.01"/>
  <path class="cls-1" d="M243.01,396.51v45.78"/>
  <path class="cls-1" d="M257.22,327.89c5.42,1.08,10.16,3.45,14.46,6.96,3.39,2.76,5.32,6.18,6.13,10.35.1.53.01,1.1.01,1.65,0,8.1-.06,16.21.02,24.31.06,6.45-2.81,11.25-7.83,15.06-5.14,3.9-10.92,6.45-17.14,7.72-5.59,1.14-11.32,1.35-17.09.98-5.61-.37-11.07-1.34-16.26-3.4-6.38-2.53-12.39-5.71-15.89-12.11-1.58-2.9-1.97-6.07-2.03-9.27-.09-4.81-.02-9.62-.03-14.42,0-.95-.04-1.89.62-2.68"/>
  <path class="cls-1" d="M160.38,320.68c.85-3.61,4.28-4.36,6.83-5.92,7.7-4.71,15.35-9.5,23.23-13.89,1.07-.59,2-1.5,3.12-2,1.52-.68,1.45-1.99,1.18-3.11-.79-3.25-2.69-5.82-5.53-7.62-1.29-.82-2.81-.64-3.87.23-4.27,3.5-9.25,5.85-13.88,8.76-5.05,3.17-10.23,6.16-15.39,9.18-.96.56-2.02.93-2.91,1.61"/>
  <path class="cls-1" d="M236.35,277.42c.41-1.06-.27-3.29-.34-4.34-.33-4.71-3.21-9.65-7.6-11.02-1.74-.54-3.12-.23-4.33.56-4.19,2.74-8.54,5.19-12.79,7.81-6.81,4.21-13.84,8.07-20.66,12.28-.53.33-.9.78-1.41,1.08"/>
  <path class="cls-1" d="M231.67,281.12c2.16,2.36,4.84,3.59,8.04,3.71,1.51.06,2.82-.57,4.12-1.23,4.25-2.15,8.04-5.06,12.17-7.4,1.96-1.11,2.26-2.82,2.25-4.77,0-4.53-.1-9.07.04-13.6.07-2.18-.78-3.63-2.51-4.74-5.01-3.2-10.33-5.86-15.46-8.85-.97-.57-1.96-.92-3.09-.23-4.96,3.05-9.96,6.02-15.05,8.85-1.09.6-1.08,1.88-1.1,2.5-.1,2.87-.51,5.79.18,8.65"/>
  <path class="cls-1" d="M250.22,283.18c4.26.88,7.31,5.07,6.33,9.05-.39,1.6.08,3.04.07,4.55-.03,9.41-.05,18.82,0,28.23.02,3.3-.07,6.61-.05,9.89.02,2.93.01,5.91.24,8.86.25,3.23-1.22,5.57-3.71,7.42-2.95,2.19-6.3,3.25-9.89,3.71"/>
  <path class="cls-1" d="M243.01,300.49v91.9"/>
  <path class="cls-1" d="M236.35,277.42c-3.1,1.85-16.31,9.96-17.63,10.75-6.51,3.87-13.01,7.77-19.63,11.45-1.43.79-2.65,2.02-4.5,2.18-1.37.12-2.5.05-3.51-.89"/>
  <path class="cls-1" d="M236.83,300.69v53.99"/>
  <path class="cls-1" d="M230.65,283.78c-5.46,1.59-7.42,3.67-8,8.26-.21,1.69-.1,3.3-.04,4.95.35,9.34.16,18.68.2,28.02.02,6.59.18,13.19-.07,19.78-.14,3.64,1.63,5.83,4.42,7.38,4.86,2.71,10.16,3.34,15.64,2.72"/>
  <path class="cls-1" d="M237.03,355.5c-.35.73-.2,1.51-.2,2.27,0,11.95,0,23.9,0,35.85"/>
  <path class="cls-1" d="M224.05,440.6c.65,4.23,3.42,6.53,7.21,7.82,6.41,2.19,12.8,2.26,18.93-.86,2.88-1.47,5.05-3.75,5.58-7.17"/>
  <path class="cls-1" d="M248.98,281.12c.76.98,1,2.04.86,3.3-.15,1.29-.15,2.62-.01,3.91.48,4.64-2.13,5.53-5.18,6.79-2.38.98-4.9.93-7.41.8"/>
  <path class="cls-1" d="M257.22,254.74c-4.89,3.16-10.05,5.86-15.05,8.85-1.71,1.02-3.36.57-4.94-.4-5.05-3.13-10.35-5.83-15.45-8.86"/>
  <path class="cls-1" d="M120.2,323.36c2.87.54,4.93,2.43,6.53,4.58,1.93,2.61,3.63,5.44,4.28,8.79.2,1.05-.75,2.2.32,3.11"/>
  <path class="cls-1" d="M241.76,264.23c0,5.91.21,13.66.21,19.57"/>
  <path class="cls-1" d="M185.52,288.13c-.85-1.57,0-2.77,1.06-3.67.94-.79,2.09-.7,3.28-.06,5.52,2.99,8.07,7.59,7.83,13.83-.02.54-.25,1.14.19,1.65"/>
  <path class="cls-1" d="M223.23,294.31c2.32,1.82,4.42,3.94,7.41,4.75,7.52,2.03,14.85,2.38,21.87-1.82,1.36-.81,2.1-2.23,3.48-2.93"/>
  <path class="cls-1" d="M223.23,335.11c.86.17,1.31.88,1.85,1.45,2.97,3.15,6.92,4.11,10.94,4.67,2.22.31,4.53.53,6.79.06"/>
  <path class="cls-1" d="M256.19,334.9c-2.82,2.75-5.93,5-9.89,5.75-1.03.2-2.01.67-3.09.63"/>
  <path class="cls-1" d="M237.86,264.02c-.47,3.29.13,7.32,0,10.62-.03.81,0,5.15-.21,9.95"/>
  <path class="cls-1" d="M231.73,281.46c-2.89,7.66.1,13.85,5.09,14.5.32.04,0-.14.21,0"/>
  <path class="cls-1" d="M155.85,307.29c3.02,2.3,4.9,5.32,5.57,9.07.07.42.44.67.62,1.03"/>
  <path class="cls-1" d="M242.8,442.87c.12,2.18,0,4.4.1,6.59"/>
  <path class="cls-1" d="M237.65,286.06v8.24"/>
  <path class="cls-1" d="M242.18,286.06v8.24"/>
  <path class="cls-1" d="M280.3,231.05c.99,1.07,2.29,1.71,3.5,2.47"/>
  <path class="cls-1" d="M237.24,291.22c-.94-.28-1.95-.26-2.88-.62"/>
  <path class="cls-1" d="M245.07,290.19c-.88.33-1.8.5-2.68.82"/>
</svg>

<svg width="500" height="500" viewBox="0 0 500 500" fill="none" xmlns="http://www.w3.org/2000/svg">
<path d="M258.67 265.67C263.56 263.19 268.13 260.14 272.88 257.41C289.93 247.6 306.87 237.6 323.79 227.55C333.75 221.64 343.86 215.98 353.65 209.8C356.4 208.06 358.84 205.87 361.69 204.24C368.18 200.51 374.61 196.7 381.05 192.89C384.84 190.65 389.01 188.85 391.62 184.93C393.4 182.26 394.44 179.39 394.45 176.26C394.49 136.29 394.48 96.3101 394.47 56.3401C394.47 51.5301 389.49 48.5301 385.21 50.7901C379.28 53.9201 373.78 57.7501 368.11 61.3001C359.19 66.8801 350.28 72.4701 341.33 78.0101C338.6 79.7001 335.75 81.2601 333.28 83.3501C329.23 86.7801 327.19 91.3501 325.6 96.3101C323.51 102.8 321.27 109.25 319.08 115.7C315.54 126.13 312.14 136.6 308.51 147C304.46 158.59 300.66 170.25 296.68 181.86C291.38 197.33 286.24 212.86 281.16 228.4C280.72 229.76 280.14 230.76 278.71 231.55C269.07 236.84 259.73 242.63 250.23 248.16C249.82 248.4 249.58 248.76 249.21 249.01" fill="#FFDA00" fill-opacity="0.7"/>
<path d="M258.67 265.67C263.56 263.19 268.13 260.14 272.88 257.41C289.93 247.6 306.87 237.6 323.79 227.55C333.75 221.64 343.86 215.98 353.65 209.8C356.4 208.06 358.84 205.87 361.69 204.24C368.18 200.51 374.61 196.7 381.05 192.89C384.84 190.65 389.01 188.85 391.62 184.93C393.4 182.26 394.44 179.39 394.45 176.26C394.49 136.29 394.48 96.3101 394.47 56.3401C394.47 51.5301 389.49 48.5301 385.21 50.7901C379.28 53.9201 373.78 57.7501 368.11 61.3001C359.19 66.8801 350.28 72.4701 341.33 78.0101C338.6 79.7001 335.75 81.2601 333.28 83.3501C329.23 86.7801 327.19 91.3501 325.6 96.3101C323.51 102.8 321.27 109.25 319.08 115.7C315.54 126.13 312.14 136.6 308.51 147C304.46 158.59 300.66 170.25 296.68 181.86C291.38 197.33 286.24 212.86 281.16 228.4C280.72 229.76 280.14 230.76 278.71 231.55C269.07 236.84 259.73 242.63 250.23 248.16C249.82 248.4 249.58 248.76 249.21 249.01" stroke="#2071B5" stroke-width="4.21" stroke-linecap="round" stroke-linejoin="round"/>
<path d="M391.36 51.7803C379.88 58.6803 368.74 66.1403 357.36 73.2103C351.44 76.8903 345.63 80.7503 339.64 84.3403C334.44 87.4603 331.8 92.4203 329.95 97.9403C324.16 115.2 318.26 132.42 312.42 149.65C308.21 162.07 304.17 174.56 299.87 186.95C295.99 198.11 292.42 209.38 288.54 220.54C287.33 224.03 286.36 227.6 285.01 231.04C284.77 231.65 285.03 232.03 285.24 232.49" fill="#FFDA00" fill-opacity="0.7"/>
<path d="M391.36 51.7803C379.88 58.6803 368.74 66.1403 357.36 73.2103C351.44 76.8903 345.63 80.7503 339.64 84.3403C334.44 87.4603 331.8 92.4203 329.95 97.9403C324.16 115.2 318.26 132.42 312.42 149.65C308.21 162.07 304.17 174.56 299.87 186.95C295.99 198.11 292.42 209.38 288.54 220.54C287.33 224.03 286.36 227.6 285.01 231.04C284.77 231.65 285.03 232.03 285.24 232.49" stroke="#2071B5" stroke-width="4.21" stroke-linecap="round" stroke-linejoin="round"/>
<path d="M356.95 206.53C356.32 204.86 357.06 203.12 356.4 201.35C354.7 196.84 349.97 194.6 345.21 197.47C328.99 207.26 312.61 216.77 296.34 226.46C292.79 228.58 288.12 232.13 284.13 233.52" stroke="#2071B5" stroke-width="4.21" stroke-linecap="round" stroke-linejoin="round"/>
<path d="M271.44 385.59C272.42 386.63 271.6 387.8 271.6 388.89C271.67 399.95 271.48 411.01 271.71 422.06C271.83 427.94 269.39 432.15 264.84 435.45C259.73 439.15 253.87 440.83 247.74 441.87C243.41 442.61 239.08 442.62 234.76 442.2C231.63 441.9 228.53 441.33 225.47 440.44C221.18 439.2 217.18 437.47 213.75 434.61C210.19 431.63 207.94 427.94 207.96 423.09C207.99 411.35 207.96 399.6 207.98 387.85C207.98 387.08 207.75 386.25 208.38 385.58" stroke="#2071B5" stroke-width="4.21" stroke-linecap="round" stroke-linejoin="round"/>
<path d="M236.83 395.27V448.02" stroke="#2071B5" stroke-width="4.21" stroke-linecap="round" stroke-linejoin="round"/>
<path d="M160.17 321.09C158.47 320.91 159.18 319.24 159.08 318.6C158.59 315.48 157.02 312.96 155.17 310.63C154.25 309.47 153.45 308.12 152.14 307.28C150.28 306.1 148.35 305.68 146.37 306.88C141.24 310.01 136.05 313.04 130.91 316.14C128.51 317.59 126.17 319.2 123.66 320.39C120.28 322 118.17 324.85 115.91 327.51C112.86 331.12 109.84 334.77 106.79 338.38C105.76 339.6 105.16 340.95 105.79 342.5C106.44 344.09 108 344.76 109.47 344.72C115.6 344.54 121.72 343.94 127.59 342.06C130.59 341.1 133.14 339.14 135.84 337.56C142.8 333.48 149.71 329.31 156.69 325.26C158.31 324.32 159.1 323.14 159.54 321.49" fill="#FFDA00" fill-opacity="0.7"/>
<path d="M160.17 321.09C158.47 320.91 159.18 319.24 159.08 318.6C158.59 315.48 157.02 312.96 155.17 310.63C154.25 309.47 153.45 308.12 152.14 307.28C150.28 306.1 148.35 305.68 146.37 306.88C141.24 310.01 136.05 313.04 130.91 316.14C128.51 317.59 126.17 319.2 123.66 320.39C120.28 322 118.17 324.85 115.91 327.51C112.86 331.12 109.84 334.77 106.79 338.38C105.76 339.6 105.16 340.95 105.79 342.5C106.44 344.09 108 344.76 109.47 344.72C115.6 344.54 121.72 343.94 127.59 342.06C130.59 341.1 133.14 339.14 135.84 337.56C142.8 333.48 149.71 329.31 156.69 325.26C158.31 324.32 159.1 323.14 159.54 321.49" stroke="#2071B5" stroke-width="4.21" stroke-linecap="round" stroke-linejoin="round"/>
<path d="M277.21 352C276.84 352.09 276.57 352.25 276.38 352.61C272.37 360.24 265.44 363.93 257.63 366.41C254.08 367.54 250.47 368.4 246.71 368.48C245.53 368.51 244.42 369.1 243.21 368.88" stroke="#2071B5" stroke-width="4.21" stroke-linecap="round" stroke-linejoin="round"/>
<path d="M242.8 368.9C236.18 369.15 229.62 368.58 223.23 366.81C216.64 364.99 210.36 362.43 205.76 357.11C204.01 355.08 201.97 353.12 201.56 350.15C200.62 343.32 203.57 338.2 208.62 334.11C212.23 331.18 216.49 329.38 220.96 328.12C221.34 328.01 221.78 328.11 222.19 328.11" stroke="#2071B5" stroke-width="4.21" stroke-linecap="round" stroke-linejoin="round"/>
<path d="M243.01 396.51V442.29" stroke="#2071B5" stroke-width="4.21" stroke-linecap="round" stroke-linejoin="round"/>
<path d="M257.22 327.89C262.64 328.97 267.38 331.34 271.68 334.85C275.07 337.61 277 341.03 277.81 345.2C277.91 345.73 277.82 346.3 277.82 346.85C277.82 354.95 277.76 363.06 277.84 371.16C277.9 377.61 275.03 382.41 270.01 386.22C264.87 390.12 259.09 392.67 252.87 393.94C247.28 395.08 241.55 395.29 235.78 394.92C230.17 394.55 224.71 393.58 219.52 391.52C213.14 388.99 207.13 385.81 203.63 379.41C202.05 376.51 201.66 373.34 201.6 370.14C201.51 365.33 201.58 360.52 201.57 355.72C201.57 354.77 201.53 353.83 202.19 353.04" stroke="#2071B5" stroke-width="4.21" stroke-linecap="round" stroke-linejoin="round"/>
<path d="M160.38 320.68C161.23 317.07 164.66 316.32 167.21 314.76C174.91 310.05 182.56 305.26 190.44 300.87C191.51 300.28 192.44 299.37 193.56 298.87C195.08 298.19 195.01 296.88 194.74 295.76C193.95 292.51 192.05 289.94 189.21 288.14C187.92 287.32 186.4 287.5 185.34 288.37C181.07 291.87 176.09 294.22 171.46 297.13C166.41 300.3 161.23 303.29 156.07 306.31C155.11 306.87 154.05 307.24 153.16 307.92" stroke="#2071B5" stroke-width="4.21" stroke-linecap="round" stroke-linejoin="round"/>
<path d="M236.35 277.42C236.76 276.36 236.08 274.13 236.01 273.08C235.68 268.37 232.8 263.43 228.41 262.06C226.67 261.52 225.29 261.83 224.08 262.62C219.89 265.36 215.54 267.81 211.29 270.43C204.48 274.64 197.45 278.5 190.63 282.71C190.1 283.04 189.73 283.49 189.22 283.79" stroke="#2071B5" stroke-width="4.21" stroke-linecap="round" stroke-linejoin="round"/>
<path d="M231.67 281.12C233.83 283.48 236.51 284.71 239.71 284.83C241.22 284.89 242.53 284.26 243.83 283.6C248.08 281.45 251.87 278.54 256 276.2C257.96 275.09 258.26 273.38 258.25 271.43C258.25 266.9 258.15 262.36 258.29 257.83C258.36 255.65 257.51 254.2 255.78 253.09C250.77 249.89 245.45 247.23 240.32 244.24C239.35 243.67 238.36 243.32 237.23 244.01C232.27 247.06 227.27 250.03 222.18 252.86C221.09 253.46 221.1 254.74 221.08 255.36C220.98 258.23 220.57 261.15 221.26 264.01" stroke="#2071B5" stroke-width="4.21" stroke-linecap="round" stroke-linejoin="round"/>
<path d="M250.22 283.18C254.48 284.06 257.53 288.25 256.55 292.23C256.16 293.83 256.63 295.27 256.62 296.78C256.59 306.19 256.57 315.6 256.62 325.01C256.64 328.31 256.55 331.62 256.57 334.9C256.59 337.83 256.58 340.81 256.81 343.76C257.06 346.99 255.59 349.33 253.1 351.18C250.15 353.37 246.8 354.43 243.21 354.89" stroke="#2071B5" stroke-width="4.21" stroke-linecap="round" stroke-linejoin="round"/>
<path d="M243.01 300.49V392.39" stroke="#2071B5" stroke-width="4.21" stroke-linecap="round" stroke-linejoin="round"/>
<path d="M236.35 277.42C233.25 279.27 220.04 287.38 218.72 288.17C212.21 292.04 205.71 295.94 199.09 299.62C197.66 300.41 196.44 301.64 194.59 301.8C193.22 301.92 192.09 301.85 191.08 300.91" stroke="#2071B5" stroke-width="4.21" stroke-linecap="round" stroke-linejoin="round"/>
<path d="M236.83 300.69V354.68" stroke="#2071B5" stroke-width="4.21" stroke-linecap="round" stroke-linejoin="round"/>
<path d="M230.65 283.78C225.19 285.37 223.23 287.45 222.65 292.04C222.44 293.73 222.55 295.34 222.61 296.99C222.96 306.33 222.77 315.67 222.81 325.01C222.83 331.6 222.99 338.2 222.74 344.79C222.6 348.43 224.37 350.62 227.16 352.17C232.02 354.88 237.32 355.51 242.8 354.89" stroke="#2071B5" stroke-width="4.21" stroke-linecap="round" stroke-linejoin="round"/>
<path d="M237.03 355.5C236.68 356.23 236.83 357.01 236.83 357.77C236.83 369.72 236.83 381.67 236.83 393.62" stroke="#2071B5" stroke-width="4.21" stroke-linecap="round" stroke-linejoin="round"/>
<path d="M224.05 440.6C224.7 444.83 227.47 447.13 231.26 448.42C237.67 450.61 244.06 450.68 250.19 447.56C253.07 446.09 255.24 443.81 255.77 440.39" stroke="#2071B5" stroke-width="4.21" stroke-linecap="round" stroke-linejoin="round"/>
<path d="M248.98 281.12C249.74 282.1 249.98 283.16 249.84 284.42C249.69 285.71 249.69 287.04 249.83 288.33C250.31 292.97 247.7 293.86 244.65 295.12C242.27 296.1 239.75 296.05 237.24 295.92" stroke="#2071B5" stroke-width="4.21" stroke-linecap="round" stroke-linejoin="round"/>
<path d="M257.22 254.74C252.33 257.9 247.17 260.6 242.17 263.59C240.46 264.61 238.81 264.16 237.23 263.19C232.18 260.06 226.88 257.36 221.78 254.33" stroke="#2071B5" stroke-width="4.21" stroke-linecap="round" stroke-linejoin="round"/>
<path d="M120.2 323.36C123.07 323.9 125.13 325.79 126.73 327.94C128.66 330.55 130.36 333.38 131.01 336.73C131.21 337.78 130.26 338.93 131.33 339.84" fill="#FFDA00" fill-opacity="0.7"/>
<path d="M120.2 323.36C123.07 323.9 125.13 325.79 126.73 327.94C128.66 330.55 130.36 333.38 131.01 336.73C131.21 337.78 130.26 338.93 131.33 339.84" stroke="#2071B5" stroke-width="4.21" stroke-linecap="round" stroke-linejoin="round"/>
<path d="M241.76 264.23C241.76 270.14 241.97 277.89 241.97 283.8" stroke="#2071B5" stroke-width="4.21" stroke-linecap="round" stroke-linejoin="round"/>
<path d="M185.52 288.13C184.67 286.56 185.52 285.36 186.58 284.46C187.52 283.67 188.67 283.76 189.86 284.4C195.38 287.39 197.93 291.99 197.69 298.23C197.67 298.77 197.44 299.37 197.88 299.88" stroke="#2071B5" stroke-width="4.21" stroke-linecap="round" stroke-linejoin="round"/>
<path d="M223.23 294.31C225.55 296.13 227.65 298.25 230.64 299.06C238.16 301.09 245.49 301.44 252.51 297.24C253.87 296.43 254.61 295.01 255.99 294.31" stroke="#2071B5" stroke-width="4.21" stroke-linecap="round" stroke-linejoin="round"/>
<path d="M223.23 335.11C224.09 335.28 224.54 335.99 225.08 336.56C228.05 339.71 232 340.67 236.02 341.23C238.24 341.54 240.55 341.76 242.81 341.29" stroke="#2071B5" stroke-width="4.21" stroke-linecap="round" stroke-linejoin="round"/>
<path d="M256.19 334.9C253.37 337.65 250.26 339.9 246.3 340.65C245.27 340.85 244.29 341.32 243.21 341.28" stroke="#2071B5" stroke-width="4.21" stroke-linecap="round" stroke-linejoin="round"/>
<path d="M237.86 264.02C237.39 267.31 237.99 271.34 237.86 274.64C237.83 275.45 237.86 279.79 237.65 284.59" stroke="#2071B5" stroke-width="4.21" stroke-linecap="round" stroke-linejoin="round"/>
<path d="M231.73 281.46C228.84 289.12 231.83 295.31 236.82 295.96C237.14 296 236.82 295.82 237.03 295.96" stroke="#2071B5" stroke-width="4.21" stroke-linecap="round" stroke-linejoin="round"/>
<path d="M155.85 307.29C158.87 309.59 160.75 312.61 161.42 316.36C161.49 316.78 161.86 317.03 162.04 317.39" stroke="#2071B5" stroke-width="4.21" stroke-linecap="round" stroke-linejoin="round"/>
<path d="M242.8 442.87C242.92 445.05 242.8 447.27 242.9 449.46" stroke="#2071B5" stroke-width="4.21" stroke-linecap="round" stroke-linejoin="round"/>
<path d="M237.65 286.06V294.3" stroke="#2071B5" stroke-width="4.21" stroke-linecap="round" stroke-linejoin="round"/>
<path d="M242.18 286.06V294.3" stroke="#2071B5" stroke-width="4.21" stroke-linecap="round" stroke-linejoin="round"/>
<path d="M280.3 231.05C281.29 232.12 282.59 232.76 283.8 233.52" stroke="#2071B5" stroke-width="4.21" stroke-linecap="round" stroke-linejoin="round"/>
<path d="M237.24 291.22C236.3 290.94 235.29 290.96 234.36 290.6" stroke="#2071B5" stroke-width="4.21" stroke-linecap="round" stroke-linejoin="round"/>
<path d="M245.07 290.19C244.19 290.52 243.27 290.69 242.39 291.01" stroke="#2071B5" stroke-width="4.21" stroke-linecap="round" stroke-linejoin="round"/>
</svg>
